X:1637
R:Polska
Z:Robert Boström
D:CD: Nordik Tree
Q:1/4=105
S:Johan Albert Pettersson
B:Jämför [[http://www.smus.se/earkiv/fmk/browselarge.php?lang=sw&katalogid=Svest+4&bildnr=00019|SMUS - katalog Svest4 bild 19]]
T:Polska från Ornunga
O: Ornunga, Västergötland
M:3/4
L:1/8
K:Am
[V:1][V:2][I:repbra 0]
[V:1]|:A2- (3A-AA (3cec|(3B-BB (3G-GG (3B-BB|(3A-Ac (3e-ee (3gag|(3^f-fd (3df-f (3f-ff|
[V:2]|:E2- (3E-EE  (3ABA|(3G-GG (3E-EE (3G-GG|(3E-EA (3c-cc (3e^fe|(3d-dB (3Bd-d (3d-dd|
[V:1](3e-ec (3A-AA (3cdc|(3B-BG (3Gd-d (3d-dc|(3A-AB (3c-cd (3e-eg|1(3^fdf e4:|2(3^fdf e4||
[V:2](3c-cA (3E-EE (3ABA|(3G-GE (3EG-G (3B-BA|(3E-EG (3A-AB (3c-ce|1(3dBd B4:|2(3dBd c4||
[V:1]|:c2 e2 (3g-gb|(3b-ba- (3aba (3^f-fa|(3a-ag (3ec-c  (3A-Ac|(3cB-B (3G-GB (3d-dc|
[V:2]|:A2 c2 (3e-eg|(3g-g^f- (3fgf (3d-df|(3^f-fe (3cA-A (3E-EA|(3AG-G (3E-EG (3B-BA|
[V:1](3A-Ac e2 (3g-gb|(3b-ba- (3aba (3^f-fa|(3a-ag (3ec-c (3A-Ac|(3BGB A4:|
[V:2](3E-EA c2 (3e-eg|(3g-g^f- (3fgf (3d-df|(3^f-fe (3cA-A (3E-EA|(3GE-E E4:|
(:musicend:)
[[!Andrastämma]]n fick jag av Rebecka Melin-Fürst\\
Grym inspelning finns med [[Personer/Hans Kennemark]], [[Personer/Arto Järvela]] och [[Personer/Timo Alakotila]] på CD:n Nordik tree
(:music:)
